X:24
T:Mon povre cueur
R:Chanson
C:Tielman Susato
H:1544
N:n28
A:Anvers
B:Premier livre des chansons
O:Flandres
Z: Eric Forgeot - http://anamnese.online.fr
L:1/4
Q:1/4=120
M:C|
K:C
%%abc2pscompat
%%measurenb 0
%%staves [1 | 2 | 3]
V:1
%%MIDI channel 1
%%MIDI program 60       % General MIDI french horn
%%MIDI transpose 0
z2c2 | ccBG | ABc3/2 B/4A/4 |
G2zG | GGFD | EFG F/E/ | DDEG-|
GFED/C/ | DDCE | AcBA-|A/G/F/E/ D A-|
A/G/ G2 ^F | G4-|G4 | z ccc | 
BGAB | c>B A2 | G2zG | AcBA |
GA>GF/E/ | [M:3/2] D A>G G2 ^F | [M:2/2] G2zc | cc A2 |
[M:3/2] GA2 GF E/D/ | [M:2/2] EGGG | AG/F/G A-| 
V:2
%%MIDI channel 2
%%MIDI program 69       % General MIDI english horn
%%MIDI transpose -12
f2ff | ecde | fe/d/c2 |
zccc | BGAB | cB/A/GG | BdcB |
Ad>cc-|cBc2 | zcdf-|f/c/ d2c |
BA/G/A2 | G2zc | ccBG | A>B c/d/e/f/ |
g>e fe | z fff | ecde | fcdf |
edcd-|d/c/A/B/ cBA2 | Gccc | A>Bcd |
e A/B/ c/d/e/c/ dd | ccccB | A/B/c/d/ e f-|
V:3
%%MIDI channel 3
%%MIDI program 70       % General MIDI bassoon
%%MIDI transpose -12
K:C bass
f2ff | c'agg | fga3/2 g/4f/4 |
eccc | gefg | cdeg-|g fee |
d2a2 | ggac'-|c'/b/agf | d2f2 |
ged2 | e2 zc | ccge | f>gaa |
g2 z2 | z fff | 
%%MIDI transpose 0
%%newpage
